svg/furkot/icomoon/office.svg

<svg viewBox="0 0 512 512" xmlns="http://www.w3.org/2000/svg"><path d="m0 512h256v-512h-256zm160-448h64v64h-64zm0 128h64v64h-64zm0 128h64v64h-64zm-128-256h64v64h-64zm0 128h64v64h-64zm0 128h64v64h-64zm256-160h224v32h-224zm0 352h64v-128h96v128h64v-288h-224z"/></svg>

<svg xmlns="http://www.w3.org/2000/svg" viewBox="0 0 512 512"><path d="M0 512H256V0H0V512ZM160 64H224V128H160V64ZM160 192H224V256H160V192ZM160 320H224V384H160V320ZM32 64H96V128H32V64ZM32 192H96V256H32V192ZM32 320H96V384H32V320ZM288 160H512V192H288ZM288 512H352V384H448V512H512V224H288Z"/></svg>
